X:156
T:Tom Billy's No. 2
Z: id:dc-jig-131
M:6/8
L:1/8
K:A Mixolydian
G|ABA ABd|edB G2B|dBB GBB|ABd efg|!
ABA ABd|edB G2B|dBB gdB|ABA A2:|!
d|eaa aga|bab age|ege GBd|ede ged|!
eaa aga|bab age|ege dBG|ABA A2:|!

